X:1
T:O Vatter , gib uns
T:André Vierendeels
T:Melody by Georg Vogler (1625) (soprano voice)
T:Source : Catechismus---Würzburg---J.Volmari---1652. Editor :  André Vierendeels (02/09/17).
T:Notes: Original clef : C1, other voices supplied editorially Original note values have been halved Text Middle German
T:O Vatter , gib uns
T:©
T:©
C:André Vierendeels
Z:©
%%score [ 1 2 3 ]
L:1/8
Q:1/4=80
M:2/2
K:C
V:1 treble nm="Soprano" snm="S"
V:2 treble-8 nm="Tenor" snm="T"
V:3 bass nm="Bass" snm="B"
V:1
 D4 A2 A2 | E2 G2 F4 | G4 A4 | z4 F4 | c2 c2 B2 G2 | A4 B4 | A4 z4 | A4 G2 E2 | F2 G2 A2 A2 | %9
w: O Vat- ter,|gib uns gnä-|dig- lich|was|e- wig, un- ver-|an- der-|lich,|dasz dein Er-|standt- nusz Forcht und|
w: Ge- hei- ligt|werd der Nah-|me dein,|in|uns dein Ehr er-|hal- te|rein:|dein Glo- ry|wachs, dein Lieb nehm|
 D4 z4 | c4 A2 c2 | _B2 B2 A4 | G4 A4 | z4 A4 | _B2 A2 G2 F2 | E2 D2 E4 | z4 A4 | G2 D2 F2 G2 | %18
w: Ehr|ge- meh- ret|wer- de mehr|und mehr:|dasz|durch und in uns|dein Na- thur|so|Gött- lich lob die|
w: zu|all Cre- a-|tu- ren laufft|her- zu|den|Vat- ter ehrt im|höch- sten Thron|der|sein Ge- schöpff er-|
 F2 E2 !fermata!D4 |] %19
w: Cre- a- tur.|
w: hal- ten schon.|
V:2
 A4 F2 c2 | G2 d2 c4 | E4 C4 | z4 D4 | E2 E2 G2 E2 | E4 G4 | E4 z4 | c4 B2 A2 | c2 B2 d2 e2 | %9
w: O Vat- ter,|gib uns gnä-|dig- lich|was|e- wig, un- ver-|an- der-|lich|dasz dein Er-|standt- nusz Forcht und|
w: Sein Nahm ist|grosz, hei- lig|voll Krafft,|barm|hert- zig vol- ler|Gna- den-|safft,|starck zu er-|lö- sen al- le|
 A4 z4 | G4 E2 A2 | D2 F2 F4 | E4 E4 | z4 F4 | F2 D2 E2 A2 | G2 D2 C4 | z4 F4 | E2 A2 c2 B2 | %18
w: Ehr|ge- meh- ret|wer- de mehr|und mehr:|dasz|durch und in uns|dein Na- thur|so|Gött- lich lob die|
w: Welt|dar- umb er|mir vor an-|dern gfält:|voll|süs- sig- keit dem|dern be- tracht,|un-|serm Ge- bett, gibt|
 c2 A2 A4 |] %19
w: Cre- a- tur.|
w: er sein Krafft.|
V:3
 D,4 D,2 F,2 | C,2 G,,2 A,,4 | C,4 F,,4 | z4 D,4 | C,2 A,,2 B,,2 C,2 | A,,4 E,4 | A,,4 z4 | %7
w: O Vat- ter,|gib uns gnä-|dig- lich|was|e- wig, un- ver-|an- der-|lich|
w: Ver- sam- blet|euch, kompt un-|be- schwert|ein|Stück al- lein mit|mir be-|gehrt|
 A,,4 G,,2 A,,2 | F,,2 G,,2 D,2 A,,2 | D,4 z4 | E,4 C,2 F,,2 | G,,2 _B,,2 F,,4 | C,4 A,,4 | %13
w: dasz dein Er-|standt- nusz Forcht und|Ehr|ge- meh- ret|wer- de mehr|und mehr:|
w: da- mit das|gan- tze Hey- den-|thumb|mit dem ver-|stock- ten Ju-|den- thumb|
 z4 D,4 | _B,,2 A,,2 C,2 F,,2 | C,2 D,2 E,4 | z4 D,4 | C,2 D,2 A,,2 G,,2 | F,,2 A,,2 D,4 |] %19
w: dasz|durch und in uns|dein Na- thur|so|Gött- lich lob die|Cre- a- tur.|
w: auch|mit dem bö- sen|Chri- sten- thumb,|und|Kätz- er- thumb zu|ih- me kum.|

